!!!!SEGMENT: pl-kk--kk-i-489--003_anonim--ave-maris-stella.krn
!!!cenid: 18xx:1354
!!!COM: Anonim
!!!COM-rismID: pe30004985
!!!CDT:
!!!CNT:
!!!OTL: Ave Maris stella
!!!PDT:
!!!AGN: Sacred
!!!SMS-siglum: PL-Kk
!!!SMS-shelfmark: Kk.I.489
!!!SMS-shelfwork: 003 W
!!!SMS-variant:
!!!SMS-altvar:
!!!NIFC-rismSourceID: 1001136558
!!!NIFC-rismChildID: 1001136915
!!!NIFC-islandoraID: pl-kk:14513
!!!URL-pdf-islandora: https://repozytorium.nifc.pl/islandora/object/pl-kk%3A14513/datastream/PDF/view
!!!URL-scan: https://polish.musicsources.pl/pl/lokalizacje/galeria/rekopisy/6096 @EN{Scan on Polish Music Sources Website} @PL{Skany w portalu Dziedzictwo Muzyki Polskiej w otwartym dostępie}
!!!IIIF:
!!!ONB-nifc: UWAGA: utwory w zbiorze: 1. Justrum animae, 2.Inclina Domine aurem tuam, 3. Ave Maris stella
!!!AIN: 1 empty
!!!key:
**kern	**text
*Iempty	*
*I"	*
*clefG2	*
*k[f#c#g#]	*
*f#:	*
*M3/4	*
=1	=1
!LO:TX:a:t=2047	!
2.r	.
=2	=2
*M4/4	*
*met(c)	*
!LO:TX:t=P:problem=brak zmiany metrum	!
4.b\	a-
8b\	-ve
4a#X\	ma-
4cc#\	-ris
=3	=3
*2\right	*
2b\	stel-
4g#\	-la
4r	.
=4	=4
4.ee\	De-
8b\	-i
((8a\L	Ma-
16b\L)	.
16a\JJ	.
8g#\)	.
8f#/	-ter
!LO:LB:g=original	!
=5	=5
4.e/	al-
16g#/LL	.
16f#/JJ	.
4e/	-ma
4r	.
=6	=6
4.b\	at-
8b\	-que
4a#X\	sem-
4cc#\	-per
=7	=7
2b\	vir-
8g#\	-go
8r	.
*Xtuplet	*
12g#\L	fe-
12b\	.
12ee\J	-lix
=8	=8
!	!LO:MO:mod=coe-
4.gg#\	ce-
8ee\	-li
(8b\L	por-
16cc#\L	.
16b\JJ	.
8a\L	.
8f#\J)	.
!LO:LB:g=original	!
=9	=9
4e/	-ta
4r	.
2r	.
=10	=10
0r	.
=11	=11
=12	=12
1r	.
=13	=13
2r	.
4.b\	.
8dd#X\	.
=14	=14
!LO:SIC:v:s=4dd#	!
4dd\	.
8cc#\	.
8r	.
[4ee#X\	.
*rscale:2	*
16ee#\L]	.
!LO:SIC:v:s=8dd#	!
16dd\J	.
16b\	.
16g#\	.
*rscale:1	*
=15	=15
8f#/	.
16a#X/LL	.
16g#/JJ	.
8f#/	.
8r	.
4.cc#\	.
8ff#\	.
!LO:LB:g=original	!
=16	=16
4ff#\	.
8ee#X\	.
8r	.
!LO:N:vis=8.	!
4.b\	.
!LO:N:vis=16	!
8dd#X\	.
=17	=17
*^	*
!LO:N:vis=16	!	!
4b#X\	4b#/	.
8cc#\	4ryy	.
8r	.	.
4.cc#\	2ryy	.
8ff#\	.	.
*v	*v	*
=18	=18
4ff#\	.
4ee#X\	.
8r	.
8b\	.
8dd#X\	.
8cc#\	.
=19	=19
4cc#;\	.
*cue	*
16a#X/LL	.
16b/	.
16cc#/	.
16b/	.
16a#/	.
16b/	.
16g#/	.
16cc#/JJ	.
!LO:TX:b:t=Roraty w roku 1868. preludia na Offertorium które były odegrane:problem=dalej wypisane preludia, wszystko ołówkiem	!
4f#;/	.
==	==
*-	*-
!!!ENC: Marta Lawrence
!!!END: 2021-01-16
!!!ENC: Tomasz Grochalski
!!!END: 2021-01-10
!!!YEC: Copyright 2022 Narodowy Instytut Fryderyka Chopina (https://polishscores.org)
!!!YEM: License CC-BY-4.0 (https://creativecommons.org/licenses/by/4.0)
